X:92
T:Reel du gâteaux aux bannanes
R:reel
M:2/4
L:1/16
K:C
|: (3ccc Gc eece | \
M:3/4
agea gedg ecAB | \
M:2/4
(3ccc Gc e2ce |
f2fe fagf |1,2 \
M:3/4
egfe dedg ecAB :|3 egfe dcdg ecc2 |:
M:2/4
egge g3g | gagf ecc2 | eaag a2ea | abag ecc2 | egge g3g |
gagf ecce | agea gedg |1 ecAB c2Gc :|2 ecAB cGAB |]
